inst/assets/svg/wi-degrees.svg

<?xml version="1.0" encoding="UTF-8"?>
<svg xmlns="http://www.w3.org/2000/svg" xmlns:xlink="http://www.w3.org/1999/xlink" width="30pt" height="30pt" viewBox="0 0 30 30" version="1.1">
<g id="surface176">
<path style=" stroke:none;fill-rule:nonzero;fill:rgb(0%,0%,0%);fill-opacity:1;" d="M 13.191406 9.210938 C 13.191406 8.710938 13.371094 8.28125 13.71875 7.929688 C 14.078125 7.570313 14.5 7.398438 15 7.398438 C 15.488281 7.398438 15.921875 7.578125 16.269531 7.929688 C 16.621094 8.289063 16.800781 8.710938 16.800781 9.210938 C 16.800781 9.710938 16.621094 10.140625 16.269531 10.5 C 15.921875 10.859375 15.488281 11.039063 15 11.039063 C 14.511719 11.039063 14.078125 10.859375 13.71875 10.5 C 13.359375 10.140625 13.191406 9.710938 13.191406 9.210938 Z M 14.070313 9.210938 C 14.070313 9.46875 14.160156 9.691406 14.339844 9.878906 C 14.53125 10.070313 14.75 10.160156 15.011719 10.160156 C 15.269531 10.160156 15.488281 10.070313 15.679688 9.878906 C 15.871094 9.691406 15.960938 9.46875 15.960938 9.210938 C 15.960938 8.949219 15.871094 8.730469 15.679688 8.550781 C 15.488281 8.371094 15.269531 8.269531 15.011719 8.269531 C 14.75 8.269531 14.53125 8.359375 14.339844 8.539063 C 14.160156 8.71875 14.070313 8.941406 14.070313 9.210938 Z M 14.070313 9.210938 "/>
</g>
</svg>

<?xml version="1.0" encoding="utf-8"?>
<!-- Generator: Adobe Illustrator 22.0.1, SVG Export Plug-In . SVG Version: 6.00 Build 0)  -->
<svg version="1.1" id="Layer_1" xmlns="http://www.w3.org/2000/svg" xmlns:xlink="http://www.w3.org/1999/xlink" x="0px" y="0px"
	 viewBox="0 0 30 30" style="enable-background:new 0 0 30 30;" xml:space="preserve">
<path d="M13.19,9.21c0-0.5,0.18-0.93,0.53-1.28c0.36-0.36,0.78-0.53,1.28-0.53c0.49,0,0.92,0.18,1.27,0.53
	c0.35,0.36,0.53,0.78,0.53,1.28s-0.18,0.93-0.53,1.29c-0.35,0.36-0.78,0.54-1.27,0.54c-0.49,0-0.92-0.18-1.28-0.54
	S13.19,9.71,13.19,9.21z M14.07,9.21c0,0.26,0.09,0.48,0.27,0.67c0.19,0.19,0.41,0.28,0.67,0.28c0.26,0,0.48-0.09,0.67-0.28
	s0.28-0.41,0.28-0.67c0-0.26-0.09-0.48-0.28-0.66c-0.19-0.18-0.41-0.28-0.67-0.28c-0.26,0-0.48,0.09-0.67,0.27
	C14.16,8.72,14.07,8.94,14.07,9.21z"/>
</svg>
